X:364
T: SOLL ICH EUCH MEIN LIEBCHEN NENNEN
N: B0433
O: Europa, Mitteleuropa, Deutschland, Rheinland
R: Liebes - Lied, Liebes - Lust, Treue
M: 3/4
L: 1/16
K: D
D2F2 | A4B4A3G | G2F2F4
E2F2 | G4B4A3G | F4z4
D2F2 | A4B4A3G | G2F2F4
E2F2 | G4B4A3G | F4z4
A2A2 | A4E4A2B2 | c4c4
B2c2 | d6B2e2d2 | c2B2A2G2
F3F | A6B2A3G | G2F2F4
E2F2 | G4B4A3G | F4z4

@@@ Tune index: 2167
